X:1
T:I’ll Go Where You Want Me To Go
T:Carrie Esther Parker Rounsefell, 1894
T:I’ll Go Where You Want Me To Go
T:Public Domain
T:Public Domain
T:Public Domain
C:Carrie Esther Parker Rounsefell, 1894
Z:Public Domain
%%score ( 1 2 ) ( 3 4 )
L:1/8
M:6/8
K:F
V:1 treble 
V:2 treble 
V:3 bass 
V:4 bass 
V:1
 [FA] | [FA]2 [FA] [Fc]2 [FA]/[FA]/ | [FB]2 [FB] [Fd]2 [Fd] | !>![Fc]>[FB][FA] [Fc]2 [FA] | %4
w: 1.~It|may not be on the|mount- ain’s height, or|o- ver the storm- y|
w: 2.~Per-|haps to- day there are|lov- ing words which|Je- sus would have me|
w: 3.~There’s|sure- ly some- where a|low- ly place in|earth’s har- vest fields so|
 [EG]3- [EG]2 [EG] | [FA]2 [FA] [EB]>[EA][EB] | [Fc]2 [Fc] [Fd]2 [Fd] | [Fc]>[FB][FA] [EA]2 [EG] | %8
w: sea; * It|may not be at the|bat- tle’s front my|Lord will have need of|
w: speak; * There|may be now, in the|paths of sin, some|wand- ’rer whom I should|
w: wide, * Where|I may la- bor through|life’s short day for|Je- sus, the Cru- ci-|
 F3- F2 [Fc] | [Ec]2 [EG]/[EG]/ (G^F)[EG] | [FA]2 [CF] [FA]2 [Fc] | [Ec]2 [EG] ([EG]F)[EG] | %12
w: me; * But|by a still, small * voice|calls to paths I|do not know, * I’ll|
w: seek. * O|ior, if You will * be|Guide, though dark and|rugged the way, * My|
w: fied. * So,|ing my all un- * to|care, I know You|always love me! * I’ll|
 [FA]3- [FA]2 F | ([FA]>[FG])[FA] [EB]>[EA][EB] | (c>=B)[Fc] [Fd]2 [Fd] | %15
w: dear * Lord,|my * hand in Yours, I’ll|go * where You want|
w: shall * e-|the * mes- sage sweet, I’ll|say * what You want|
w: Your * will|a * heart sin- cere, I’ll|be * what You want|
 !>![Fc]>[FB][FA] [FA][EA]>[EG] | F3- F2 ||"^Refrain" [Fc] | !>![Ec]>[EG][EG] [EG][E^F][EG] | %19
w: to go. * * * *||||
w: to say. * * * *||||
w: to be. * * * *||||
 [FA]2 F [FA]2 [Fc] | [Ec]>[EG][EG] ([EG]F)[EG] | [FA]3- [FA]2 [Fc] | %22
w: |||
w: |||
w: |||
 !>![Ec]>[EG][EG] [EG][E^F][EG] | [FA]2 F [FA]2 [Fc] | [Ec]>[EG][EG] [EG]F[EG] | F3- F2 |] %26
w: ||||
w: ||||
w: ||||
V:2
 x | x6 | x6 | x6 | x6 | x6 | x6 | x6 | F3- F2 x | x3 E2 x | x6 | x4 F x | x5 F | x6 | F2 x4 | x6 | %16
w: ||||||||if *|He||answer,|with||me||
w: ||||||||Sav- *|my||voice|cho||me||
w: ||||||||trust- *|Your||do|with||me||
 F3- F2 || x | x6 | x6 | x4 F x | x6 | x6 | x2 F x3 | x4 F x | F3- F2 |] %26
w: ||||||||||
w: ||||||||||
w: ||||||||||
V:3
 [F,C] | [F,C]2 [F,C] [F,A,]2 [F,C]/[F,C]/ | [B,,D]2 [B,,D] [B,,B,]2 [D,B,] | %3
w: ~|~ ~ ~ ~ ~|~ ~ ~ ~|
 !>![F,A,]>[F,D][F,C] [F,A,]2 [F,C] | [C,C]3- [C,C]2 [C,C] | [F,C]2 [F,C] [G,C]>[G,C][G,C] | %6
w: ~ ~ ~ ~ ~|~ * ~|~ ~ ~ ~ ~|
 [A,C]2 [A,C] B,2 [B,,B,] | [C,A,]>[C,D][C,C] [C,C]2 [C,B,] | [F,A,]3- [F,A,]2 [F,A,] | %9
w: ~ ~ ~ ~|~ ~ ~ ~ ~|~ * ~|
 [C,G,]2 [C,B,]/[C,B,]/ [C,B,]2 [C,B,] | [F,C]2 [F,A,] [F,C]2 [F,A,] | [C,G,]2 [C,B,] (B,A,)[C,C] | %12
w: ~ ~ ~ ~ ~|~ ~ ~ ~|~ ~ ~ * ~|
 [F,C]3- [F,C]2 [F,A,] | [F,C]>[F,C][F,C] [G,C]>[G,C][G,C] | [A,C]2 [A,C] B,2 [B,,B,] | %15
w: ~ * ~|~ ~ ~ ~ ~ ~|~ ~ ~ ~|
 !>![C,A,]>[C,D][C,C] [C,C][C,C]>[C,B,] | [F,A,]3- [F,A,]2 || [F,A,] | %18
w: ~ ~ ~ ~ ~ ~|I’ll *|go|
 !>![C,G,]>[C,C][C,C] [C,C][C,C][C,C] | [F,C]2 [A,C] [F,C]2 [F,A,] | [C,G,]>[C,B,][C,B,] (B,A,)C | %21
w: where You want me to go,|dear Lord, O’er mount-|ain, or plain, or * sea;|
 [F,C]3- [F,C]2 [F,A,] | !>![C,G,]>[C,C][C,C] [C,C][C,C][C,C] | [F,C]2 [A,C] [F,C]2 [F,A,] | %24
w: what * You|want me to say, dear Lord,|I’ll be what You|
 [C,G,]>[C,B,][C,B,] B,A,C | [F,A,]3- [F,A,]2 |] %26
w: want me to be. * *||
V:4
 x | x6 | x6 | x6 | x6 | x6 | x6 | x6 | x6 | x6 | x6 | x3 C,2 x | x6 | x6 | x6 | x6 | x5 || x | %18
w: |||||||||||~|||||||
 x6 | x6 | x3 C,2 C | x6 | x6 | x6 | x3 C,2 C | x5 |] %26
w: ||I’ll say||||||

